{ "compressionlevel":-1,
 "height":4,
 "infinite":false,
 "layers":[
        {
         "data":[1, 1,
            14, 13,
            11, 6,
            1, 1],
         "height":4,
         "id":1,
         "name":"Tile Layer 1",
         "opacity":1,
         "type":"tilelayer",
         "visible":true,
         "width":2,
         "x":0,
         "y":0
        }],
 "nextlayerid":2,
 "nextobjectid":1,
 "orientation":"orthogonal",
 "renderorder":"right-down",
 "tiledversion":"1.11.0",
 "tileheight":32,
 "tilesets":[
        {
         "firstgid":1,
         "source":"WhitherThither.tsx"
        }],
 "tilewidth":32,
 "type":"map",
 "version":"1.10",
 "width":2
}